X: 100374
T: PRINCESS BEATRICE HORNPIPE
C: Composed by W.B. Laybourn, 1885
R: hornpipe, reel
B: K\"ohler's Violin Repository, v.3, 1885 p.250 #1
F: http://www.archive.org/details/klersviolinrepos03rugg
Z: 2012 John Chambers <jc:trillian.mit.edu>
M: C|
L: 1/8
K: Gm
(dc) |\
BDGB AD^FA | (GD)GB (dc)BA | (Bd)gf (ed)cB | AGFE D(cBA) |
BDGB AD^FA | (GD)GB (dc)BA | f=e_ed cBAG | FEDC B,2 :|
|: (uFE) |\
DBEB FBEB | (DF)Bd (fb)fd | Ec=Ec FcGc | (Ac)ec (AF)EC |
DBEB FBEB | (DF)Bd (fb)fd | f=e_ed cBAG | FEDC B,2 :|

%%sep 2 1 500

